X:1
T:Truth Is Marching On
T:Truth Is Marching On
T:Robert Lowry
T:Isaac Roberts, 1885
T:Public Domain Courtesy of the Cyber Hymnal™
T:Public Domain Courtesy of the Cyber Hymnal™
C:Robert Lowry
Z:Public Domain
Z:Courtesy of the Cyber Hymnal™
%%score ( 1 2 ) ( 3 4 )
L:1/8
Q:1/4=90
M:4/4
K:Bb
V:1 treble 
V:2 treble 
V:3 bass 
V:4 bass 
V:1
 [DF][DF] | [B,D]>[CE] [DF][DF] [EG][DF][DF][DF] | [DB]>[EA] [FB][Fc] [Fd]2 [Fd][Fd] | %3
w: 1.~We are|toil- ing thro’ the dark- ness, but our|eyes be- hold the light That is|
w: 2.~He will|come in glor- ious ma- jes- ty to|sweep a- way all wrong; He will|
w: 3.~He is|call- ing on His peo- ple to be|faith- ful, prompt, and brave, To up-|
w: 4.~Let us|fight a- gainst the e- vil with our|fac- es t’ward the light; God is|
 [Fc]>[Fc] [Fc][Fd] [Fc][Fc][FB][Fc] | [Fd]>[Ec] [DB][EG] [DF]2 [DF][DF] | %5
w: mount- ing up the east- ern sky, and|beat- ing back the night; Soon with|
w: heal the bro- ken- heart- ed, and will|make His peo- ple strong; He will|
w: lift a- gain the fall- en, and to|help from sin to save; To de-|
w: look- ing thro’ the dark- ness, and He|watch- es o’er the fight; And His|
 [B,D]>[CE] [DF][DF] [EG][DF][DF][DF] | [FB]>[FB] [Gc][Gd] [Ge]3 [Gc] | [FB]2 [DB]2 [Fd]2 [Ec]2 | %8
w: joy we’ll hail the morn- ing when our|Lord will come in might, For|truth is march- ing|
w: teach our souls His right- eous- ness, our|hearts a glad new song, For|truth is march- ing|
w: vote them- selves for oth- ers as Him-|self for them He gave, For|truth is march- ing|
w: joy will be our re- com- pense, His|tri- umph crown the right, For|truth is march- ing|
 [DB]8 ||"^Refrain" [Fc]2 F2 [Fd]2 [DB]2 | [Fc]>[Fc] [FB][Fc] [Fd]2 [DB]2 | %11
w: on.|||
w: on.|||
w: on.|||
w: on.|||
 [EG]2 [EB]2 [DF]2 [DB]2 | [DB]>[DB] [Gc][Gc] [^Fd]4 | [Ge]2 [Fc]2 [Fd]2 [DB]2 | %14
w: |||
w: |||
w: |||
w: |||
 [Ec]>[GB] [FA][EG] [EG]2 [DF]2 | [EG]2 [Gc]2 [FB]2 [EA]2 | [DB]6 |] %17
w: |||
w: |||
w: |||
w: |||
V:2
 x2 | x8 | x8 | x8 | x8 | x8 | x8 | x8 | x8 || x2 F2 x4 | x8 | x8 | x8 | x8 | x8 | x8 | x6 |] %17
V:3
 [B,,B,][B,,B,] | [B,,F,]>[B,,F,] [B,,B,][B,,B,] [B,,B,][B,,B,][B,,B,][B,,B,] | %2
w: ||
 [B,,F,]>[C,F,] [D,B,][F,A,] B,2 [B,,B,][B,,B,] | %3
w: * * * * March- * *|
 [F,A,]>[F,A,] [F,A,][F,B,] [F,A,][F,A,][F,G,][F,A,] | %4
w: |
 [B,,B,]>[B,,B,] [B,,B,][B,,B,] [B,,B,]2 [B,,B,][B,,B,] | %5
w: |
 [B,,F,]>[B,,F,] [B,,B,][B,,B,] [B,,B,][B,,B,][B,,B,][B,,B,] | %6
w: |
 [D,B,]>[D,B,] [E,G,][D,=B,] [C,C]3 [E,C] | [F,D]2 [F,B,]2 [F,A,]2 [F,A,]2 | [B,,B,]8 || %9
w: |||
 [F,A,]2 [F,A,]2 B,2 [B,,B,]2 | [F,A,]>[F,A,] [F,G,][F,A,] B,2 [B,,B,]2 | %11
w: ing, march- ing, truth|is ev- er march- ing, Bright-|
 [E,B,]2 [G,B,]2 B,2 [B,,B,]2 | [G,B,]>[G,B,] [E,G,][E,G,] [D,A,]4 | %13
w: er, clear- er, comes|the hap- py dawn; March-|
 [C,C]2 [F,A,]2 [B,,B,]2 [G,B,]2 | [E,G,]>[E,B,] [E,B,][E,B,] [B,,B,]2 [B,,B,]2 | %15
w: ing, march- ing, truth|is ev- er march- ing, Ev-|
 [E,B,]2 [C,E]2 [F,D]2 [F,C]2 | [B,,B,]6 |] %17
w: er march- ing on.||
V:4
 x2 | x8 | x4 B,2 x2 | x8 | x8 | x8 | x8 | x8 | x8 || x4 B,2 x2 | x4 B,2 x2 | x4 B,2 x2 | x8 | x8 | %14
 x8 | x8 | x6 |] %17

